X:3466
T:Hårrepolska 
T:(FMK Ske 9 bild 99)
R:Horrepolska
O:Landskronaslätten, Skåne
B:Upptecknad 1906 av [[Personer/John Enninger]]
Z:Åke Persson, 2015-07-27
M:3/4
L:1/8
Q:140
K:G
|: GBdgbg | ez (ec)eg | dz (dB)!4!ec | (3(ABA) (.G.D)B,G, |
 GBdgbg | ez (ec)eg | dz (dB!4!)ec | (3(ABA) [GG,]z [GG,]z ::
 cz (cB)cd | ez (ec)eg | dz (dB)!4!ec | (3(ABA) (.G.D).B,.G,  |
 cz (cB)cd | ez (ec)eg | dz (dB)!4!ec | (3(ABA)  [GG,]z [GG,]z  :|
(:musicend:)

Enninger anmärker: "Hårrepolska (Ett slags Hambopolska) Denna melodi var den enda som å Landskronaslätten användes till denna dans. Äkta mixolydisk tonart."
Om horrpolska verkligen var en lokal variant av hambopolska kan ifrågasättas, men uppenbarligen fanns där likheter mellan danserna. Däremot känner vi åtminstone tre horrepolskor till från Landskronaslätten, två efter Per Munkberg i Barsbäck och en efter Esbjörn Nilsson i Annelöv.
.(:music:)
